X:1
T:Hodie nobis de coelo - Porta
T:James Gibb editions
T:#
%%score [ 1 2 3 4 ]
L:1/8
Q:1/4=200
M:none
K:C
V:1 treble nm="Soprano" snm="S"
V:2 treble nm="Alto" snm="A"
V:3 treble-8 nm="Tenor" snm="T"
V:4 bass nm="Bass" snm="B"
V:1
"^Hodie nobis de coelo""^Costanzo Porta\n(c.1529-1601)" z16 | z16 | z16 | z16 | z16 | z4 G8 G4 | %6
w: |||||Ho- di-|
 A16 | c4 B4 d8 | (c6 BA G2 E2 G2 A2 | B2 c2 d4) A4 A4 | c8 B8 | z4 d4 (c6 BA | G2 A2 B6 c2 d4) | %13
w: e|no- bis de|coe\- * * * * * *|* * * lo pax|ve- ra|de- scen\- * *||
 A8 z4 G4- | G4 ^F4 G4 D4 | (E6 G2 F4) E4 | D8 E8 | z4 E4 (F6 D2 | E4) E4 (G8 | A8) D8 | z16 | %21
w: dit: Ho\-|* di- e per|to\- * * tum|mun- dum,|per to\- *|* tum mun\-|* dum||
 z8 G8 | (A8 c8- | c4) c4 B8 | z8 c8 | A4 c4 d8 | c4 A4 c8- | c4 c4 B8 | c8 A4 A4 | G16- | G8 G8 | %31
w: mel-|li\- *|* flu- i|fac-|ti sunt coe-|li, mel- li\-|* flu- i|fac- ti sunt|coe\-|* li.|
 z16 | G6 G2 A4 A4 | (c6 BA G4) B4 | A8 G8- | G8 z8 | z4 G4 G4 G4 | A4 G4 (E2 F2 G2 E2 | %38
w: |Ho- di- e il-|lu\- * * * xit|no- bis||di- es re-|dem- pti- o\- * * *|
 F4 E4 A8- | A4 D4 z4 F4- | F4 G4 A8 | F4 (E6 DC D2 CD | E8) E4 ^F4 | G2 =F2 E2 D2 C2 A,2 A4) | %44
w: * nis no\-|* vae, re\-|* pa- ra-|ti- o\- * * * * *|* nis an-|ti\- * * * * * *|
 G4 A8 B4 | (c2 G2 c8) B4 | (c2 BA G4) _B4 B4 | A8 G8 | z8 G8 | G4 G4 A8 | _B4 G4 (B8 | %51
w: quae, re- pa-|ra\- * * ti-|o\- * * * nis an-|ti- quae,|fe-|li- ci- ta-|tis ae- ter\-|
 A6 GF G2 F2 E2 DC | D4) B,4 z4 G4 | G4 G4 A4 F4 | G4 (E2 DC D2 B,2 E4- | E4) D4 z4 C4 | %56
w: |* nae, fe-|li- ci- ta- tis|ae- ter\- * * * * *|* nae. Al-|
 B,4 (C2 D2 E2 F2 G4- | G2 F2 E4) D4 F4- | F4 E4 G8 | G8 z8 | z8 z4 G4 | A4 (G6 FE F2 EF | %62
w: le- lu\- * * * *|* * * ia, Al\-|* le- lu-|ia,|Al-|le- lu\- * * * * *|
[Q:1/4=198] G4)[Q:1/4=194] E4[Q:1/4=191] z4[Q:1/4=187] G4-[Q:1/4=196][Q:1/4=193][Q:1/4=189][Q:1/4=185][Q:1/4=184] | %63
w: * ia, Al\-|
[Q:1/4=183] G4[Q:1/4=179] C4[Q:1/4=176] c8[Q:1/4=181][Q:1/4=177][Q:1/4=174][Q:1/4=171] | %64
w: * le- lu-|
[Q:1/4=170] B16 |] %65
w: ia.|
V:2
 G,12 G,4 | A,8 C8 | G,4 G4 (F4 E2 D2 | C2 A,2 C2 D2 E2 F2 G4) | D4 D4 F8 | E12 D4 | F12 C4 | %7
w: Ho- di-|e no-|bis de coe\- * *||lo pax ve-|ra de-|scen- dit,|
 z4 G8 (F4- | F2 ED C2 D2 E8) | D8 z8 | z8 z4 D4- | D4 F6 F2 C4 | E8 D8 | z16 | z4 D8 B,4 | %15
w: de coe\-||lo|pax|* ve- ra de-|scen- dit:||Ho- di-|
 C4 G,4 (A,6 C2 | B,12) G,4 | (A,2 B,2 C2 G,2 _B,4) A,4 | z4 C8 =B,4 | D4 A,4 (B,6 A,2 | %20
w: e per to\- *|* tum|mun\- * * * * dum,|ho- di-|e per to\- *|
 G,4 G,4 (A,2 B,2 C4- | C4) B,4 z4 C4 | F12 E4 | E8 z4 G4- | G4 E4 E8 | F12 E2 D2 | E2 C2 F4) E8- | %27
w: * tum mun\- * *|* dum mel-|li- flu-|i fac\-|* ti sunt|coe\- * *|* * * li,|
 E8 z8 | z8 F8 | E4 E4 D8 | E16 | z4 C8 C4 | E4 E4 (F8 | G6 F2 E4) D4 | D8 B,8 | z16 | z16 | %37
w: |fac-|ti sunt coe-|li.|Ho- di-|e il- lu\-|* * * xit|no- bis|||
 z4 E4 C4 C4 | D4 C4 (A,6 B,2 | C2 A,2 _B,4) A,4 D4- | D4 C4 z8 | z16 | z16 | z4 C8 D4 | E4 C4 F8 | %45
w: di- es re-|dem- pti- o\- *|* * * nis no\-|* vae|||re- pa-|ra- ti- o-|
 E4 E4 D8 | E8 z4 D4 | D4 D4 E8 | F4 C4 E8 | D8 z8 | z8 D8 | D4 D4 C8 | B,4 D4 E8- | E4 B,4 z8 | %54
w: nis an- ti-|quae, fe-|li- ci- ta-|tis ae- ter-|nae,|fe-|li- ci- ta-|tis ae- ter\-|* nae.|
 C8 B,4 (C2 D2 | E2 F2 G4) E4 G4 | D4 (E8 D4) | C8 z8 | z4 C8 B,4 | (C2 D2 E2 F2 G2 FE D2 E2 | %60
w: Al- le- lu\- *|* * * ia, Al-|le lu\- *|ia,|Al- le-|lu\- * * * * * * * *|
 F2 E2 D2 C2 D4) G,4 | z4 C8 A,4 | (C2 B,2 C2 D2 E2 D2 D2 CD | E2 F2 G2 F2 E2 D2 E4) | D16 |] %65
w: * * * * * ia,|Al- le-|lu\- * * * * * * * *||ia.|
V:3
 z16 | z16 | z16 | z8 G8- | G4 G4 A8 | c8 B8 | z4 d4 (c6 BA | G2 E2 G2 A2 B2 c2 d4) | A4 A4 (c8 | %9
w: |||Ho\-|* di- e|no- bis|de coe\- * *||lo pax ve\-|
 B8) c4 d4 | e12 B4 | z8 A8 | c4 G4 (B6 c2 | d4) (c6 B2 B2 AG | A8) G8 | z16 | z16 | z16 | %18
w: * ra de-|scen- dit,|pax|ve- ra de\- *|* scen\- * * * *|* dit:||||
 z8 z4 G4- | G4 ^F4 G4 D4 | (E6 G2 =F4) E4 | D8 E8 | z4 D4 A8- | A4 A4 G8 | c12 A4 | A8 _B8 | %26
w: Ho\-|* di- e per|to\- * * tum|mun- dum|mel- li\-|* flu- i|fac- ti|sunt coe-|
 A8 z4 A4 | (c2 d2 e2 c2 d4) e4 | A8 d6 d2 | B4 (c8 B4) | c8 z4 G4- | G4 G4 A4 A4 | c4 B4 d8 | %33
w: li, mel-|li\- * * * * flu-|i fac- ti|sunt coe\- *|li. Ho\-|* di- e il-|lu- xit no-|
 e8 z8 | z4 d4 d4 d4 | e4 d4 (B2 c2 d2 B2 | c4) B4 e8 | c8 z8 | z16 | z16 | z8 z4 F4- | %41
w: bis|di- es re-|dem- pti- o\- * * *|* nis no-|vae|||re|
 F4 G4 A4 F4 | (c6 B2 A8) | G4 G4 (A6 B2 | c2 B2 A2 G2 F4 E2 D2 | G16) | C8 z8 | z16 | c8 c4 c4 | %49
w: * pa- ra- ti-|o\- * *|nis an- ti\- *|||quae,||fe- li- ci-|
 _B8 A4 c4 | d12 G4 | z16 | z8 G8 | G4 G4 F8 | E4 A4 G8- | G8 G8 | z8 G8 | E4 (G2 A2 B2 c2 d4) | %58
w: ta- tis ae-|ter- nae,||fe-|li- ci- ta-|tis ae- ter\-|* nae.|Al-|le- lu\- * * * *|
 (c6 BA d4) d4 | e4 (c8 B4) | c4 A4 A4 (c4- | c2 d2 e4) A8 | z4 G8 G4 | (E6 F2 G8) | G16 |] %65
w: ia, * * * Al-|le- lu\- *|ia, Al- le- lu\-|* * * ia,|Al- le-|lu\- * *|ia.|
V:4
 z16 | z8 C,8- | C,4 C,4 D,8 | F,8 C,8 | z4 G,4 (F,4 E,2 D,2 | C,2 A,,2 C,2 D,2 E,2 F,2 G,4) | %6
w: |Ho\-|* di- e|no- bis|de coe\- * *||
 D,4 D,4 F,8 | E,8 z8 | z16 | G,8 (F,6 E,D, | C,2 A,,2 C,2 D,2 E,2 F,2 G,4) | D,4 D,4 F,8 | %12
w: lo pax ve-|ra,||de coe\- * *||lo pax ve-|
 E,8 G,8 | (F,6 E,D, C,2 D,2 E,4) | D,8 z8 | z16 | z4 G,8 E,4 | F,4 C,4 (D,6 F,2 | E,4) C,4 E,8 | %19
w: ra de-|scen\- * * * * *|dit:||Ho- di-|e per to\- *|* tum mun-|
 D,8 z4 G,,4 | (C,6 E,2 D,4) C,4 | G,,8 C,8 | z16 | z16 | z16 | z16 | z4 D,4 A,8- | A,4 A,4 G,8 | %28
w: dum, per|to\- * * tum|mun- dum|||||mel- li\-|* flu- i|
 z4 F,6 F,2 D,4 | (E,6 F,2 G,4) G,,4 | z4 C,8 C,4 | E,4 E,4 (F,6 E,D, | C,4 E,4 (D,8 | %33
w: fac- ti sunt|coe\- * * li,|Ho- di-|e il- lu\- * *|* xit no\-|
 C,6 D,2 E,2 F,2 G,4- | G,4 ^F,4) G,8 | z4 G,4 G,4 G,4 | A,4 G,4 E,2 F,2 G,2 E,2 | F,4) E,4 z8 | %38
w: |* * bis|di- es re-|dem- pti- o\- * * *|* nis,|
 z8 F,4 F,4 | F,4 G,4 F,4 (D,2 E,2 | F,2 D,2 E,4) F,4 D,4- | D,4 C,4 z8 | z4 C,8 D,4 | %43
w: di- es|re- dem- pti- o\- *|* * * nis no\-|* vae,|re- pa-|
 E,4 C,4 F,8 | E,4 F,4 D,8 | C,8 z8 | G,8 G,4 G,4 | F,8 E,4 G,4 | (F,8 C,8) | G,,8 z8 | %50
w: ra- ti- o-|nis an- ti-|quae,|fe- li- ci-|ta- tis ae-|ter\- *|nae,|
 G,8 G,4 G,4 | F,8 E,4 A,4 | (G,6 F,2 E,2 D,2 C,2 B,,2 | C,2 D,2 E,4) D,8 | z8 z4 C,4- | %55
w: fe- li- ci-|ta- tis ae-|ter\- * * * * *|* * * nae.|Al\-|
 C,4 B,,4 (C,2 D,2 E,2 F,2 | G,4) C,4 C,4 B,,4 | (C,2 D,2 E,2 F,2 G,2 F,E, D,2 E,2 | %58
w: * le- lu\- * * *|* ia, Al- le-|lu\- * * * * * * * *|
 F,2 G,2 A,4) G,8 | z8 z4 G,4 | A,4 (F,6 E,2 E,2 D,E, | F,4) C,4 z4 D,4 | %62
w: * * * ia,|Al-|le- lu\- * * * *|* ia, Al-|
 E,4 (C,6 B,,2 B,,2 A,,B,, | C,16) | G,,16 |] %65
w: le- lu\- * * * *||ia.|

